src/assets/L-Disabled-button.svg

<svg fill="none" height="44" viewBox="0 0 322 44" width="322" xmlns="http://www.w3.org/2000/svg"><rect fill="#ffed9f" height="44" rx="22" width="322"/><path d="m159.395 14.9121h-1.299v12.2774h1.299v-6.4668h1.968v-1.0665h-1.968zm-9.024 9.2285h.984c2.277.0069 3.904-.0547 5.825-.3965l-.164-1.0937c-1.75.3144-3.288.4033-5.346.4101v-5.9199h4.43v-1.0527h-5.729zm17.158-8.9687c-2.679-.0069-4.382.8681-4.375 2.3515-.007 1.4561 1.696 2.3174 4.375 2.3106 2.687.0068 4.368-.8545 4.375-2.3106-.007-1.4834-1.688-2.3584-4.375-2.3515zm-5.578 6.6582h11.17v-1.0528h-11.17zm1.34 5.1816h8.463v-4.0879h-8.463zm1.203-9.4883c-.007-.8476 1.149-1.333 3.035-1.3261 1.873-.0069 3.042.4785 3.035 1.3261.007.8135-1.162 1.292-3.035 1.2989-1.886-.0069-3.042-.4854-3.035-1.2989zm.082 8.4356v-1.9961h5.92v1.9961z" fill="#000"/></svg>

<svg width="322" height="44" viewBox="0 0 322 44" fill="none" xmlns="http://www.w3.org/2000/svg">
<rect width="322" height="44" rx="22" fill="#FFED9F"/>
<path d="M159.395 14.9121H158.096V27.1895H159.395V20.7227H161.363V19.6562H159.395V14.9121ZM150.371 24.1406H151.355C153.632 24.1475 155.259 24.0859 157.18 23.7441L157.016 22.6504C155.266 22.9648 153.728 23.0537 151.67 23.0605V17.1406H156.1V16.0879H150.371V24.1406ZM167.529 15.1719C164.85 15.165 163.147 16.04 163.154 17.5234C163.147 18.9795 164.85 19.8408 167.529 19.834C170.216 19.8408 171.897 18.9795 171.904 17.5234C171.897 16.04 170.216 15.165 167.529 15.1719ZM161.951 21.8301H173.121V20.7773H161.951V21.8301ZM163.291 27.0117H171.754V22.9238H163.291V27.0117ZM164.494 17.5234C164.487 16.6758 165.643 16.1904 167.529 16.1973C169.402 16.1904 170.571 16.6758 170.564 17.5234C170.571 18.3369 169.402 18.8154 167.529 18.8223C165.643 18.8154 164.487 18.3369 164.494 17.5234ZM164.576 25.959V23.9629H170.496V25.959H164.576Z" fill="black"/>
</svg>
